flaticon/emoticons/angry-2.svg

<svg xmlns="http://www.w3.org/2000/svg" width="32" height="32" viewBox="0 0 24 24">
    <path d="M 8.726562 9.816406 C 8.726562 10.722656 7.996094 11.453125 7.089844 11.453125 C 6.1875 11.453125 5.453125 10.722656 5.453125 9.816406 C 5.453125 8.914062 6.1875 8.183594 7.089844 8.183594 C 7.996094 8.183594 8.726562 8.914062 8.726562 9.816406 Z M 8.726562 9.816406"/>
    <path d="M10.910156 9.816406C10.910156 7.714844 9.195312 6 7.089844 6 4.984375 6 3.273438 7.714844 3.273438 9.816406 3.273438 11.921875 4.984375 13.636719 7.089844 13.636719 9.195312 13.636719 10.910156 11.921875 10.910156 9.816406zM7.089844 12.546875C5.585938 12.546875 4.363281 11.320312 4.363281 9.816406 4.363281 8.3125 5.585938 7.089844 7.089844 7.089844 8.59375 7.089844 9.816406 8.3125 9.816406 9.816406 9.816406 11.320312 8.59375 12.546875 7.089844 12.546875zM18.546875 9.816406C18.546875 10.722656 17.8125 11.453125 16.910156 11.453125 16.003906 11.453125 15.273438 10.722656 15.273438 9.816406 15.273438 8.914062 16.003906 8.183594 16.910156 8.183594 17.8125 8.183594 18.546875 8.914062 18.546875 9.816406zM18.546875 9.816406"/>
    <path d="M 16.910156 6 C 14.804688 6 13.089844 7.714844 13.089844 9.816406 C 13.089844 11.921875 14.804688 13.636719 16.910156 13.636719 C 19.015625 13.636719 20.726562 11.921875 20.726562 9.816406 C 20.726562 7.714844 19.015625 6 16.910156 6 Z M 16.910156 12.546875 C 15.40625 12.546875 14.183594 11.320312 14.183594 9.816406 C 14.183594 8.3125 15.40625 7.089844 16.910156 7.089844 C 18.414062 7.089844 19.636719 8.3125 19.636719 9.816406 C 19.636719 11.320312 18.414062 12.546875 16.910156 12.546875 Z M 16.910156 12.546875"/>
    <path d="M 12 0 C 5.382812 0 0 5.382812 0 12 C 0 18.617188 5.382812 24 12 24 C 18.617188 24 24 18.617188 24 12 C 24 5.382812 18.617188 0 12 0 Z M 12 22.910156 C 5.984375 22.910156 1.089844 18.015625 1.089844 12 C 1.089844 5.984375 5.984375 1.089844 12 1.089844 C 18.015625 1.089844 22.910156 5.984375 22.910156 12 C 22.910156 18.015625 18.015625 22.910156 12 22.910156 Z M 12 22.910156"/>
    <path d="M12 14.183594C10.195312 14.183594 8.726562 15.648438 8.726562 17.453125 8.726562 19.257812 10.195312 20.726562 12 20.726562 13.804688 20.726562 15.273438 19.257812 15.273438 17.453125 15.273438 15.648438 13.804688 14.183594 12 14.183594zM12 19.636719C10.796875 19.636719 9.816406 18.65625 9.816406 17.453125 9.816406 16.25 10.796875 15.273438 12 15.273438 13.203125 15.273438 14.183594 16.25 14.183594 17.453125 14.183594 18.65625 13.203125 19.636719 12 19.636719zM10.207031 6.949219C10.308594 7.042969 10.441406 7.089844 10.570312 7.089844 10.71875 7.089844 10.867188 7.03125 10.976562 6.910156 11.179688 6.6875 11.160156 6.34375 10.9375 6.140625L7.457031 2.992188C7.234375 2.792969 6.890625 2.808594 6.6875 3.03125 6.484375 3.253906 6.5 3.601562 6.726562 3.804688zM13.429688 7.089844C13.558594 7.089844 13.691406 7.042969 13.792969 6.949219L17.273438 3.804688C17.5 3.601562 17.515625 3.253906 17.3125 3.03125 17.109375 2.808594 16.765625 2.792969 16.542969 2.992188L13.0625 6.140625C12.839844 6.34375 12.820312 6.6875 13.023438 6.910156 13.132812 7.03125 13.28125 7.089844 13.429688 7.089844zM13.429688 7.089844"/>
</svg>

<svg xmlns="http://www.w3.org/2000/svg" width="32" height="32" viewBox="0 0 24 24">
    <path d="M8.727 9.816a1.636 1.636 0 1 1-3.273 0c0-.902.734-1.632 1.636-1.632.906 0 1.637.73 1.637 1.632zm0 0"/>
    <path d="M10.91 9.816A3.825 3.825 0 0 0 7.09 6a3.822 3.822 0 0 0-3.817 3.816c0 2.106 1.711 3.82 3.817 3.82a3.826 3.826 0 0 0 3.82-3.82zm-3.82 2.73a2.729 2.729 0 0 1 0-5.457 2.729 2.729 0 0 1 0 5.458zm0 0M18.547 9.816a1.636 1.636 0 1 1-3.274 0c0-.902.73-1.632 1.637-1.632.902 0 1.637.73 1.637 1.632zm0 0"/>
    <path d="M16.91 6a3.825 3.825 0 0 0-3.82 3.816 3.826 3.826 0 0 0 3.82 3.82 3.823 3.823 0 0 0 3.817-3.82A3.822 3.822 0 0 0 16.91 6zm0 6.547a2.729 2.729 0 0 1 0-5.457 2.729 2.729 0 0 1 0 5.457zm0 0"/>
    <path d="M12 0C5.383 0 0 5.383 0 12s5.383 12 12 12 12-5.383 12-12S18.617 0 12 0zm0 22.91C5.984 22.91 1.09 18.016 1.09 12S5.984 1.09 12 1.09 22.91 5.984 22.91 12 18.016 22.91 12 22.91zm0 0"/>
    <path d="M12 14.184a3.274 3.274 0 0 0-3.273 3.27A3.278 3.278 0 0 0 12 20.726a3.278 3.278 0 0 0 3.273-3.274A3.274 3.274 0 0 0 12 14.183zm0 5.453a2.187 2.187 0 0 1-2.184-2.184 2.184 2.184 0 0 1 4.368 0c0 1.203-.98 2.184-2.184 2.184zm0 0M10.207 6.95a.543.543 0 0 0 .73-.809l-3.48-3.149a.545.545 0 1 0-.73.813zm0 0M13.43 7.09a.538.538 0 0 0 .363-.14l3.48-3.145a.545.545 0 1 0-.73-.813l-3.48 3.149a.544.544 0 0 0 .367.949zm0 0"/>
</svg>
